actions/22/markasblank.svg

<svg xmlns="http://www.w3.org/2000/svg" viewBox="0 0 22 22">
  <defs id="defs3051">
    <style type="text/css" id="current-color-scheme">.ColorScheme-Text {color:#fcfcfc;}</style>
 </defs>
 <path 
     style="fill:currentColor;fill-opacity:1;stroke:none" 
     d="m 2,6 c 0,3 0,7 0,10 0,3 3,3 3,3 V 18 C 5,18 3,18 3,16 3,14 3,8 3,6 3,4 5,4 5,4 V 3 C 5,3 2,3 2,6 Z M 16,3 v 1 c 0,0 2,0 2,2 0,2 0,8 0,10 0,2 -2,2 -2,2 v 1 c 0,0 3,0 3,-3 C 19,13 19,9 19,6 19,3 16,3 16,3 Z M 5,14 v 1 1 h 11 v -1 -1 h -1 v 1 H 6 v -1 z"
     class="ColorScheme-Text"
     />
</svg>

<svg xmlns="http://www.w3.org/2000/svg" viewBox="0 0 22 22">
  <defs id="defs3051">
    <style type="text/css" id="current-color-scheme">
      .ColorScheme-Text {
        color:#eff0f1;
      }
      </style>
  </defs>
 <path 
     style="fill:currentColor;fill-opacity:1;stroke:none" 
     d="M 2 3 L 2 19 L 3 19 L 5 19 L 5 18 L 3 18 L 3 4 L 5 4 L 5 3 L 3 3 L 2 3 z M 16 3 L 16 4 L 18 4 L 18 18 L 16 18 L 16 19 L 18 19 L 19 19 L 19 3 L 18 3 L 16 3 z M 5 14 L 5 15 L 5 16 L 16 16 L 16 15 L 16 14 L 15 14 L 15 15 L 6 15 L 6 14 L 5 14 z "
     class="ColorScheme-Text"
     />
</svg>
